static/img/menus/ico-info.svg

<svg width="16" height="16" viewBox="0 0 16 16" fill="none" xmlns="http://www.w3.org/2000/svg">
<g clip-path="url(#clip0_1587_12)">
<path d="M12.9088 3.09117C12.3166 2.54839 11.5975 2.16323 10.8176 1.97116C9.90074 1.71399 8.95212 1.58794 7.99996 1.59676C7.04805 1.58779 6.09968 1.71384 5.18316 1.97116C4.40291 2.16308 3.6835 2.54824 3.09117 3.09117C2.54824 3.6835 2.16308 4.40291 1.97116 5.18316C1.71384 6.09968 1.58779 7.04805 1.59676 7.99996C1.58794 8.95212 1.71399 9.90074 1.97116 10.8176C2.16323 11.5975 2.54839 12.3166 3.09117 12.9088C3.68378 13.4513 4.40308 13.8364 5.18316 14.0288C6.09984 14.2852 7.04815 14.4107 7.99996 14.4016C8.95202 14.4105 9.90058 14.285 10.8176 14.0288C11.5974 13.8363 12.3164 13.4512 12.9088 12.9088C13.4512 12.3164 13.8363 11.5974 14.0288 10.8176C14.285 9.90058 14.4105 8.95202 14.4016 7.99996C14.4107 7.04815 14.2852 6.09984 14.0288 5.18316C13.8364 4.40308 13.4513 3.68378 12.9088 3.09117Z" stroke="currentColor"/>
<path d="M8.29956 6.90039V11.5H7.69995V6.90039H8.29956ZM8.29956 4.5V5.09961H7.69995V4.5H8.29956Z" fill="white" stroke="currentColor"/>
</g>
<defs>
<clipPath id="clip0_1587_12">
<rect width="16" height="16" fill="white"/>
</clipPath>
</defs>
</svg>

<svg xmlns="http://www.w3.org/2000/svg" width="16" height="16" fill="none" viewBox="0 0 16 16"><g stroke="currentColor" clip-path="url(#a)"><path d="M12.909 3.091a4.8 4.8 0 0 0-2.091-1.12A10 10 0 0 0 8 1.597a10 10 0 0 0-2.817.374c-.78.192-1.5.577-2.092 1.12a4.8 4.8 0 0 0-1.12 2.092A10 10 0 0 0 1.597 8c-.01.952.117 1.9.374 2.818a4.8 4.8 0 0 0 1.12 2.09 4.8 4.8 0 0 0 2.092 1.12c.917.257 1.865.383 2.817.374.952.009 1.9-.117 2.818-.373a4.8 4.8 0 0 0 2.09-1.12 4.8 4.8 0 0 0 1.12-2.091A10.1 10.1 0 0 0 14.403 8c.009-.952-.117-1.9-.373-2.817a4.8 4.8 0 0 0-1.12-2.092Z"/><path fill="#fff" d="M8.3 6.9v4.6h-.6V6.9zm0-2.4v.6h-.6v-.6z"/></g><defs><clipPath id="a"><path fill="#fff" d="M0 0h16v16H0z"/></clipPath></defs></svg>
